X: 92
T:Mr Turveydrop
% Nottingham Music Database
S:Bryon Bonnett, via PR
M:4/4
L:1/4
K:Dm
A|"Dm"DD D/2E/2F/2G/2|AA A2|"Gm"BB dB|"A7"A2 -A2|"Dm"DD D/2E/2F/2G/2|
AA A2|"Gm"GA/2G/2 FG|"A7"A2 A2|"Dm"DD D/2E/2F/2G/2|AA A2|"Gm"BB dB|
"Dm"A2 -A2|"Gm"GG G/2B/2A/2G/2|"Dm"FF F/2A/2G/2F/2|"A7"EE E/2G/2F/2E/2|\
"Dm"D2 -D2
|:"Dm"d2 A2|"Gm"Bd "Dm"A2|"Gm"GG G/2A/4G/4F/2G/2|"A7"A2 -A2|"Dm"d2 A2|\
"Gm"Bd "Dm"A2|"A7"AA/2B/2 A/2G/2F/2E/2|"Dm"D2 -D2:|

